X: 1
T: Banks Of The Allan
M: 6/8
L: 1/8
R: jig
K: Amaj
c3 cBA | cee e2 a | faa eaa | faa eaa | 
c3 cBA | cee e2 a | faf ecA | cBB B3 :|
|: c3 cBA | cee e2 d | cdc cBA | dff fed |
cde Bcd | ABc cBA | faf ecA | cBB B3 :|
